!!!!SEGMENT: pl-sa--l-1643--002_anonim--magnificat.krn
!!!cenid: 16xx:1357
!!!COM: Anonim
!!!COM-rismid: pe30004985
!!!CDT:
!!!CNT:
!!!OTL: Magnificat
!!!PDT:
!!!AGN: Sacred
!!!SMS-siglum: PL-SA
!!!SMS-shelfmark: L 1643
!!!SMS-shelfwork: 002 W
!!!SMS-variant:
!!!SMS-altvar:
!!!NIFC-rismid: 1001064466
!!!URL-scan: http://repozytorium.nifc.pl/skany/pl-sa-nut--l1643
!!!ONB-nifc: UWAGA: 8 ksiąg. Primi chori: 1mus Cantus (s. 4-6), C 2dus (s. 2-4), C 3tius (s. 2-4), Bassus (s. 2-4); Secondi chori: Primus Cantus (s. 2-4), C 2dus (s. 2-4), Altus (s. 2-4), Bassus (s. 2-4). UWAGA: metrum 2/2 i 3/2
!!!key:
**kern	**text	**kern	**text	**kern	**text	**kern	**text	**kern	**text	**kern	**text	**kern	**text	**kern	**text
*group1	*	*group1	*	*group1	*	*group1	*	*group1	*	*group1	*	*group1	*	*group1	*
*part8	*part8	*part7	*part7	*part6	*part6	*part5	*part5	*part4	*part4	*part3	*part3	*part2	*part2	*part1	*part1
*staff8	*staff8	*staff7	*staff7	*staff6	*staff6	*staff5	*staff5	*staff4	*staff4	*staff3	*staff3	*staff2	*staff2	*staff1	*staff1
*Iempty	*	*Iempty	*	*Iempty	*	*Iempty	*	*Iempty	*	*Iempty	*	*Iempty	*	*Iempty	*
*I"Baſsus 2di Chori.	*	*I"Altus secundi Chori.	*	*I"Cantus 2dus Secundi Chori.	*	*I"Primus Cantus 2di Chori	*	*I"Bassus Primi Chori.	*	*I"Cantus 3tius Primi Chori	*	*I"Cantus 2dus Primi Chori.	*	*I"Im(us) Cantus Primi Chori	*
*I'[Coro 2 B]	*	*I'[Coro 2 A]	*	*I'[Coro 2 S 2]	*	*I'[Coro 2 S 1]	*	*I'[Coro 1 B]	*	*I'[Coro 1 S 3]	*	*I'[Coro 1 S 2]	*	*I'[Coro 1 S 1]	*
*clefC4	*	*clefC3	*	*clefC1	*	*clefC1	*	*clefC3	*	*clefC1	*	*clefG2	*	*clefG2	*
*k[b-]	*	*k[b-]	*	*k[b-]	*	*k[b-]	*	*k[b-]	*	*k[b-]	*	*k[b-]	*	*k[b-]	*
*F:	*	*F:	*	*F:	*	*F:	*	*F:	*	*F:	*	*F:	*	*F:	*
*M2/2	*	*M2/2	*	*M2/2	*	*M2/2	*	*M2/2	*	*M2/2	*	*M2/2	*	*M2/2	*
*met(C|)	*	*met(C|)	*	*met(C|)	*	*met(C|)	*	*met(C|)	*	*met(C|)	*	*met(C|)	*	*met(C|)	*
=1-	=1-	=1-	=1-	=1-	=1-	=1-	=1-	=1-	=1-	=1-	=1-	=1-	=1-	=1-	=1-
1F	Et	1f	Et	1a	Et	1cc	Et	0r	.	0r	.	0r	.	0r	.
=2-	=2-	=2-	=2-	=2-	=2-	=2-	=2-	=2-	=2-	=2-	=2-	=2-	=2-	=2-	=2-
2F/	e-	2f\	e-	2a\	e-	2cc\	e-	.	.	.	.	.	.	.	.
2F/	-xul-	2f\	-xul-	2a\	-xul-	2cc\	-xul-	.	.	.	.	.	.	.	.
=3-	=3-	=3-	=3-	=3-	=3-	=3-	=3-	=3-	=3-	=3-	=3-	=3-	=3-	=3-	=3-
1B-	-ta-	1f	-ta-	1b-	-ta-	1dd	-ta-	1r	.	1r	.	1r	.	1r	.
=4-	=4-	=4-	=4-	=4-	=4-	=4-	=4-	=4-	=4-	=4-	=4-	=4-	=4-	=4-	=4-
0F	-vit	0f	-vit	0a	-vit	0cc	-vit	1f	Et	1f	Et	1a	Et	1cc	Et
=5-	=5-	=5-	=5-	=5-	=5-	=5-	=5-	=5-	=5-	=5-	=5-	=5-	=5-	=5-	=5-
.	.	.	.	.	.	.	.	2f\	e-	2f/	e-	2a/	e-	2cc\	e-
.	.	.	.	.	.	.	.	2f\	-xul-	2a\	-xul-	2a/	-xul-	2cc\	-xul-
=6-	=6-	=6-	=6-	=6-	=6-	=6-	=6-	=6-	=6-	=6-	=6-	=6-	=6-	=6-	=6-
1r	.	1r	.	1r	.	1r	.	4B-/	-ta-	1f	-ta-	1b-	-ta-	1dd	-ta-
.	.	.	.	.	.	.	.	4c/	.	.	.	.	.	.	.
.	.	.	.	.	.	.	.	4d\	.	.	.	.	.	.	.
.	.	.	.	.	.	.	.	4e\	.	.	.	.	.	.	.
=7-	=7-	=7-	=7-	=7-	=7-	=7-	=7-	=7-	=7-	=7-	=7-	=7-	=7-	=7-	=7-
2r	.	2r	.	2r	.	2r	.	1f	-vit	1a	-vit	1a	-vit	1cc	-vit
*	*	*	*	*	*	*	*ij	*	*	*	*	*	*	*	*
2F/	et	2f\	et	2a\	et	2cc\	Et	.	.	.	.	.	.	.	.
=8-	=8-	=8-	=8-	=8-	=8-	=8-	=8-	=8-	=8-	=8-	=8-	=8-	=8-	=8-	=8-
2G/	e-	2e-X\	e-	2b-\	e-	2b-\	e-	00r	.	00r	.	00r	.	00r	.
2A/	-xul-	2e-\	-xul-	2a\	-xul-	2cc\	-xul-	.	.	.	.	.	.	.	.
=9-	=9-	=9-	=9-	=9-	=9-	=9-	=9-	=9-	=9-	=9-	=9-	=9-	=9-	=9-	=9-
1B-	-ta-	1d	-ta-	2f/	-ta-	1dd	-ta-	.	.	.	.	.	.	.	.
.	.	.	.	2b-Z,<\	-vit	.	.	.	.	.	.	.	.	.	.
=10-	=10-	=10-	=10-	=10-	=10-	=10-	=10-	=10-	=10-	=10-	=10-	=10-	=10-	=10-	=10-
2GZ,</	-vit	2gZ,<\	-vit	4.b-\	spi-	2b-Z,<\	-vit	.	.	.	.	.	.	.	.
.	.	.	.	8b-\	-ri-	.	.	.	.	.	.	.	.	.	.
!	!	!LO:SIC:v:t=custos g	!	!	!	!	!	!	!	!	!	!	!	!	!
!	!	!LO:LB:g=original	!	!	!	!	!	!	!	!	!	!	!	!	!
*	*	*	*	*	*	*	*Xij	*	*	*	*	*	*	*	*
2.c\	spi-	2.g\	spi-	2ccZ,<\	-tus	2.ee-X\	Spi-	.	.	.	.	.	.	.	.
=11-	=11-	=11-	=11-	=11-	=11-	=11-	=11-	=11-	=11-	=11-	=11-	=11-	=11-	=11-	=11-
.	.	.	.	2cc\	me-	.	.	.	.	.	.	.	.	.	.
4c\	-ri-	4g\	-ri-	.	.	4ee-X\	-ri-	.	.	.	.	.	.	.	.
2e-X\	-tus	2g\	-tus	2g/	.	2cc\	-tus	.	.	.	.	.	.	.	.
=12-	=12-	=12-	=12-	=12-	=12-	=12-	=12-	=12-	=12-	=12-	=12-	=12-	=12-	=12-	=12-
1d	me-	(>2g\	me-	1a	.	1dd	me-	1r	.	1r	.	1r	.	1r	.
.	.	2f#X\)	.	.	.	.	.	.	.	.	.	.	.	.	.
=13-	=13-	=13-	=13-	=13-	=13-	=13-	=13-	=13-	=13-	=13-	=13-	=13-	=13-	=13-	=13-
1G	-us	1g	-us	1b-	-us	1dd	-us	2r	.	2r	.	2r	.	2r	.
.	.	.	.	.	.	.	.	2.g\	Spi-	2.g/	Spi-	2.b-/	Spi-	2dd.\	Spi-
=14-	=14-	=14-	=14-	=14-	=14-	=14-	=14-	=14-	=14-	=14-	=14-	=14-	=14-	=14-	=14-
0r	.	0r	.	0r	.	0r	.	.	.	.	.	.	.	.	.
.	.	.	.	.	.	.	.	4g\	-ri-	4g/	-ri-	4cc\	-ri-	4ee\	-ri-
!	!	!	!	!	!	!	!	!	!	!	!LO:SIC:v:t=custos dd	!	!	!	!
!	!	!	!	!	!	!	!	!	!	!	!	!LO:LB:g=original	!	!	!
.	.	.	.	.	.	.	.	2d\	-tus	2aZ,<\	-tus	2ddZ,<\	-tus	2ff\	-tus
!	!	!	!	!	!	!	!	!LO:SIC:v:t=custos a	!	!	!	!	!	!	!
!	!	!	!	!	!	!	!	!LO:LB:g=original	!	!	!	!	!	!	!
=15-	=15-	=15-	=15-	=15-	=15-	=15-	=15-	=15-	=15-	=15-	=15-	=15-	=15-	=15-	=15-
.	.	.	.	.	.	.	.	2a\	me-	1a	me-	(>2dd\	me-	1ee	me-
.	.	.	.	.	.	.	.	2A/	.	.	.	2cc\)	.	.	.
=16-	=16-	=16-	=16-	=16-	=16-	=16-	=16-	=16-	=16-	=16-	=16-	=16-	=16-	=16-	=16-
1r	.	1r	.	1r	.	1r	.	2d\	us	2f#XZ,</	-us	2ddZ,<\	us	2ddZ,<\	-us
.	.	.	.	.	.	.	.	2d\	in	2f#/	in	2dd\	in	2dd\	in
=17-	=17-	=17-	=17-	=17-	=17-	=17-	=17-	=17-	=17-	=17-	=17-	=17-	=17-	=17-	=17-
!	!	!	!	!	!	!	!	!	!	!	!	!LO:N:acc=#	!	!	!
2r	.	2r	.	2r	.	2r	.	2G/	De-	2g/	De-	2bn/	De-	2dd\	De-
!	!	!	!	!LO:N:acc=#:problem:below	!	!	!	!	!	!	!	!	!	!	!
2G/	in	2g\	in	2bn\	in	2dd\	in	2G/	-o	2g/	-o	2b/	-o	2dd\	-o
!	!	!	!	!LO:SIC:v:t=custos cc	!	!LO:SIC:v:t=custos ee	!	!	!	!	!	!	!	!	!
!	!	!	!	!LO:LB:g=original	!	!LO:LB:g=original	!	!	!	!	!	!	!	!	!
=18-	=18-	=18-	=18-	=18-	=18-	=18-	=18-	=18-	=18-	=18-	=18-	=18-	=18-	=18-	=18-
2c\	De-	2g\	De-	2cc\	De-	2eeny\	De-	00r	.	00r	.	00r	.	00r	.
2c\	-o	2g\	-o	2ccZ\,<	-o	2ee\	-o	.	.	.	.	.	.	.	.
!LO:SIC:v:t=custos G	!	!	!	!	!	!	!	!	!	!	!	!	!	!	!
!LO:PB:g=original	!	!	!	!	!	!	!	!	!	!	!	!	!	!	!
=19-	=19-	=19-	=19-	=19-	=19-	=19-	=19-	=19-	=19-	=19-	=19-	=19-	=19-	=19-	=19-
2.G/	Sa-	2.g\	Sa-	2.b-\	Sa-	2.dd\	Sa-	.	.	.	.	.	.	.	.
4A/	-lu-	4g\	-lu-	4cc\	-lu-	4dd\	-lu-	.	.	.	.	.	.	.	.
=20-	=20-	=20-	=20-	=20-	=20-	=20-	=20-	=20-	=20-	=20-	=20-	=20-	=20-	=20-	=20-
2B-\	-ta-	2fny\	-ta-	2dd\	-ta-	2dd\	-ta-	.	.	.	.	.	.	.	.
2E-X/	-ri	2g\	-ri	2cc\	-ri	2ee-XZ,<\	-ri	.	.	.	.	.	.	.	.
=21-	=21-	=21-	=21-	=21-	=21-	=21-	=21-	=21-	=21-	=21-	=21-	=21-	=21-	=21-	=21-
0F	me-	0f	me-	2a\	me-	2ee-\	me-	.	.	.	.	.	.	.	.
.	.	.	.	1b-\	.	2dd\	.	.	.	.	.	.	.	.	.
=22-	=22-	=22-	=22-	=22-	=22-	=22-	=22-	=22-	=22-	=22-	=22-	=22-	=22-	=22-	=22-
.	.	.	.	.	.	1cc	.	1r	.	1r	.	1r	.	1r	.
.	.	.	.	2a\	.	.	.	.	.	.	.	.	.	.	.
!	!	!	!	!	!	!	!	!	!	!LO:SIC:v:t=custos b	!	!	!	!	!
!	!	!	!	!	!	!	!	!	!	!LO:LB:g=original	!	!	!	!	!
=23-	=23-	=23-	=23-	=23-	=23-	=23-	=23-	=23-	=23-	=23-	=23-	=23-	=23-	=23-	=23-
1B-	-o	1d	-o	1b-	-o	1dd	-o	2.B-/	Sa-	2.b-\	sa-	2.dd\	Sa-	2.dd\	Sa-
.	.	.	.	.	.	.	.	4c/	-lu-	4b-\	-lu-	4cc\	-lu-	4ee\	-lu-
=24-	=24-	=24-	=24-	=24-	=24-	=24-	=24-	=24-	=24-	=24-	=24-	=24-	=24-	=24-	=24-
0r	.	0r	.	0r	.	0r	.	2d\	-ta-	2fny/	-ta-	2a/	-ta-	2ff\	-ta-
!	!	!	!	!	!	!	!	!	!	!	!	!	!	!LO:LB:g=original	!
.	.	.	.	.	.	.	.	2B-/	-ri	2b-Z\,<	-ri	2ddZ,<\	-ri	2gg\	-ri
!	!	!	!	!	!	!	!	!	!	!	!	!	!	!LO:SIC:v:t=custos ee	!
=25-	=25-	=25-	=25-	=25-	=25-	=25-	=25-	=25-	=25-	=25-	=25-	=25-	=25-	=25-	=25-
.	.	.	.	.	.	.	.	0c	me-	2b-\	me-	0cc	me-	2ee\	me-
.	.	.	.	.	.	.	.	.	.	2a\	.	.	.	1ff\	.
=26-	=26-	=26-	=26-	=26-	=26-	=26-	=26-	=26-	=26-	=26-	=26-	=26-	=26-	=26-	=26-
1r	.	1r	.	1r	.	1r	.	.	.	1g	.	.	.	.	.
.	.	.	.	.	.	.	.	.	.	.	.	.	.	2ee\	.
=27-	=27-	=27-	=27-	=27-	=27-	=27-	=27-	=27-	=27-	=27-	=27-	=27-	=27-	=27-	=27-
2r	.	2r	.	2r	.	2r	.	2FZ,</	-o	2aZ\	-o	2aZ,</	-o	2ffZ,<\	-o
2.F/	Sa-	2.f\	Sa-	2.a\	Sa-	2.cc\	Sa-	2.f\	Sa-	2.a\	Sa-	2.cc\	Sa-	2.ff\	Sa-
=28-	=28-	=28-	=28-	=28-	=28-	=28-	=28-	=28-	=28-	=28-	=28-	=28-	=28-	=28-	=28-
4F/	-lu-	4f\	-lu-	4g/	-lu-	4cc\	-lu-	4f\	-lu-	4a\	-lu-	4cc\	-lu-	4ff\	-lu-
!	!	!LO:SIC:v:t=custos f	!	!	!	!	!	!	!	!	!	!	!	!	!
!	!	!LO:LB:g=original	!	!	!	!	!	!	!	!	!	!	!	!	!
1B-\	-ta-	1f\	-ta-	1f/	-ta-	2b-\	-ta-	1B-/	-ta-	1b-\	-ta-	1dd\	-ta-	1ff\	-ta-
!	!	!	!	!LO:SIC:v:t=custos a	!	!	!	!	!	!	!	!	!	!	!
!	!	!	!	!LO:PB:g=original	!	!	!	!	!	!	!	!	!	!	!
=29-	=29-	=29-	=29-	=29-	=29-	=29-	=29-	=29-	=29-	=29-	=29-	=29-	=29-	=29-	=29-
.	.	.	.	.	.	1fZ,<	-ri	.	.	.	.	.	.	.	.
2F/	-ri	2f\	-ri	2a\	-ri	.	.	2A/	-ri	2ccZ,<\	-ri	2cc\	-ri	2ffZ,<\	-ri
=30-	=30-	=30-	=30-	=30-	=30-	=30-	=30-	=30-	=30-	=30-	=30-	=30-	=30-	=30-	=30-
0B-	me-	0f	me-	0f	me-	2f/	me-	0B-	me-	0b-	me-	4dd\	me-	4ff\	me-
.	.	.	.	.	.	.	.	.	.	.	.	4ee\	.	4ee\	.
.	.	.	.	.	.	1b-\	.	.	.	.	.	4ff\	.	4dd\	.
.	.	.	.	.	.	.	.	.	.	.	.	4ee\	.	4cc\	.
=31-	=31-	=31-	=31-	=31-	=31-	=31-	=31-	=31-	=31-	=31-	=31-	=31-	=31-	=31-	=31-
.	.	.	.	.	.	.	.	.	.	.	.	4dd\	.	4dd\	.
.	.	.	.	.	.	.	.	.	.	.	.	4cc\	.	4ee\	.
.	.	.	.	.	.	4a\	.	.	.	.	.	2dd\	.	2ff\	.
.	.	.	.	.	.	4g\	.	.	.	.	.	.	.	.	.
=32-	=32-	=32-	=32-	=32-	=32-	=32-	=32-	=32-	=32-	=32-	=32-	=32-	=32-	=32-	=32-
0F	-o.	0f	-o.	0f	-o.	0a	-o.	0f	-o	0a	-o.	0cc	-o	0ff	-o
!LO:LB:g=original	!	!	!	!	!	!LO:PB:g=original	!	!LO:LB:g=original	!	!LO:LB:g=original	!	!LO:LB:g=original	!	!LO:LB:g=original	!
=33-	=33-	=33-	=33-	=33-	=33-	=33-	=33-	=33-	=33-	=33-	=33-	=33-	=33-	=33-	=33-
*M2/2	*	*M2/2	*	*M2/2	*	*M2/2	*	*M2/2	*	*M2/2	*	*M2/2	*	*M2/2	*
*met(C|)	*	*met(C|)	*	*met(C|)	*	*met(C|)	*	*met(C|)	*	*met(C|)	*	*met(C|)	*	*met(C|)	*
2F/	Qu-	2f\	Qu-	2a\	Qu-	2cc\	Qu-	1r	.	1r	.	1r	.	1r	.
2F/	-ia	2f\Z,<	-ia	2a\	-ia	2ccZ,<\	-ia	.	.	.	.	.	.	.	.
=34-	=34-	=34-	=34-	=34-	=34-	=34-	=34-	=34-	=34-	=34-	=34-	=34-	=34-	=34-	=34-
1.F	fe-	1.f	fe-	1.a	fe-	1.cc	fe-	2f\	Qu-	2a\	Qu-	2cc\	Qu-	2ff\	Qu-
.	.	.	.	.	.	.	.	2fZ,<\	-ia	2a\	-ia	2cc\Z,<	-ia	2ff\	-ia
=35-	=35-	=35-	=35-	=35-	=35-	=35-	=35-	=35-	=35-	=35-	=35-	=35-	=35-	=35-	=35-
.	.	.	.	.	.	.	.	1f	fe-	1a	fe-	1cc	fe-	1ff	fe-
2FZ,</	-cit	2fZ,<\	-cit	2a\Z,<	-cit	2cc\	-cit	.	.	.	.	.	.	.	.
=36-	=36-	=36-	=36-	=36-	=36-	=36-	=36-	=36-	=36-	=36-	=36-	=36-	=36-	=36-	=36-
2B-\	mi-	2f\	mi-	2b-\	mi-	2b-\	mi-	2B-/	-cit	2f/	-cit	2ddZ,<\	-cit	2ffZ,<\	-cit
2B-\	-hi	2f\	-hi	2b-\	-hi	2b-Z,<\	-hi	4B-/	mi-	4b-\	mi-	4dd\	mi-	4dd\	mi-
.	.	.	.	.	.	.	.	4B-/	-hi	4b-\	-hi	4dd\	-hi	4dd\	-hi
=37-	=37-	=37-	=37-	=37-	=37-	=37-	=37-	=37-	=37-	=37-	=37-	=37-	=37-	=37-	=37-
1B-	mag-	2B-/	mag-	1b-	mag-	1dd	mag-	1B-	mag-	1b-	mag-	1dd	mag-	1ff	mag-
.	.	2f\	.	.	.	.	.	.	.	.	.	.	.	.	.
=38-	=38-	=38-	=38-	=38-	=38-	=38-	=38-	=38-	=38-	=38-	=38-	=38-	=38-	=38-	=38-
1B-	-na	1f	-na	1b-	-na	1b-	-na	2f\	-na	2b-Z,<\	-na	2ddZ,<\	-na	2ffZ,<\	-na
!	!	!	!	!	!	!	!	!	!	!	!	!LO:TX:t=P:problem:dźwięk niewidoczny	!	!	!
.	.	.	.	.	.	.	.	2d\	qui	2b-Z,<\	qui	2dd\yy	q(ui)	2ff\	q(ui)
=39-	=39-	=39-	=39-	=39-	=39-	=39-	=39-	=39-	=39-	=39-	=39-	=39-	=39-	=39-	=39-
1r	.	1r	.	1r	.	1r	.	2e-X\	po-	2g/	po-	2cc\	po-	2ee-X\	po-
.	.	.	.	.	.	.	.	2g\	-tens	2b-\	-tens	2b-y/	-tens	2b-/,<	-tens
=40-	=40-	=40-	=40-	=40-	=40-	=40-	=40-	=40-	=40-	=40-	=40-	=40-	=40-	=40-	=40-
2r	.	2r	.	2ryy	.	2r	.	1f	eſt	1cc	eſt	1a	eſt	1cc	eſt
2F/	qui	2f\	qui	2a\	qui	2cc\	qui	.	.	.	.	.	.	.	.
!	!	!LO:SIC:v:t=custos d	!	!	!	!	!	!	!	!	!	!	!	!	!
!	!	!LO:PB:g=original	!	!	!	!	!	!	!	!	!	!	!	!	!
=41-	=41-	=41-	=41-	=41-	=41-	=41-	=41-	=41-	=41-	=41-	=41-	=41-	=41-	=41-	=41-
2B-\	po-	2d\	po-	2b-\	po-	2dd\	po-	1r	.	1r	.	1r	.	1r	.
2d\	-tens	2f\	-tens	2f/	-tens	2a\	-tens	.	.	.	.	.	.	.	.
!	!	!	!	!LO:SIC:v:t=custos g	!	!	!	!	!	!	!	!	!	!	!
!	!	!	!	!LO:LB:g=original	!	!	!	!	!	!	!	!	!	!	!
=42-	=42-	=42-	=42-	=42-	=42-	=42-	=42-	=42-	=42-	=42-	=42-	=42-	=42-	=42-	=42-
1c	eſt	1eny	eſt	1g	eſt	1cc	eſt	2r	.	2r	.	2r	.	2r	.
.	.	.	.	.	.	.	.	2c/	et	2g/	et	2cc\	et	2eeny\	et
=43-	=43-	=43-	=43-	=43-	=43-	=43-	=43-	=43-	=43-	=43-	=43-	=43-	=43-	=43-	=43-
1r	.	1r	.	1r	.	1r	.	2.B-/	San-	2.b-\	San-	2.dd\	San-	2.ff\	San-
.	.	.	.	.	.	.	.	4B-/	-ctum	4b-\	-ctum	4ccZ,<\	-ctu(m)	4eeZ<\,<	-ctum
=44-	=44-	=44-	=44-	=44-	=44-	=44-	=44-	=44-	=44-	=44-	=44-	=44-	=44-	=44-	=44-
2r	.	2r	.	2r	.	2r	.	2B-/	no-	2b-\	no-	2b-/	no-	2dd\	no-
2B-/	et	2d\	et	2b-\	et	2dd\	et	2B-/	-men	2f/	-men	2dd\	-[men]	2ff\	-men.
=45-	=45-	=45-	=45-	=45-	=45-	=45-	=45-	=45-	=45-	=45-	=45-	=45-	=45-	=45-	=45-
2.F/	San-	2.f\	San-	2.a\	San-	2.cc\	San-	1r	.	1r	.	1r	.	1r	.
4F/	-ctum	4f\	-ctum	4a\	-ctu(m)	4cc\	-ctu(m)	.	.	.	.	.	.	.	.
=46-	=46-	=46-	=46-	=46-	=46-	=46-	=46-	=46-	=46-	=46-	=46-	=46-	=46-	=46-	=46-
2F/	no-	2f\	no-	2a\	no-	2cc\	no-	2ryy	.	2r	.	2r	.	2r	.
!	!	!	!	!	!	!	!	!LO:TX:t=P:problem:nuta częściowo widoczna	!	!	!	!	!	!	!
2F/	-men	2c/	-men	2a\	-men	2cc\	-men	2f\	e[t]	2a\	et	2cc\	et	2cc\	et
!	!	!	!	!	!	!	!	!LO:SIC:v:t=custos d	!	!	!	!	!	!	!
!	!	!	!	!	!	!	!	!LO:LB:g=original	!	!	!	!	!	!	!
=47-	=47-	=47-	=47-	=47-	=47-	=47-	=47-	=47-	=47-	=47-	=47-	=47-	=47-	=47-	=47-
00r	.	00r	.	00r	.	00r	.	2.d\	San-	2.a\	San-	2.dd\	San-	2.ff\	San-
.	.	.	.	.	.	.	.	4enyZ,<\	-ctum	4a\	-ctu(m)	4dd\	-ctu(m)	4ff\	-ctum
!	!	!	!	!	!	!	!	!	!	!LO:SIC:v:t=custos a	!	!	!	!LO:SIC:v:t=custos ff	!
!	!	!	!	!	!	!	!	!	!	!LO:LB:g=original	!	!	!	!LO:LB:g=original	!
=48-	=48-	=48-	=48-	=48-	=48-	=48-	=48-	=48-	=48-	=48-	=48-	=48-	=48-	=48-	=48-
.	.	.	.	.	.	.	.	2f\	no-	2a\	no-	2cc\	no-	2ff\	no-
.	.	.	.	.	.	.	.	2dZ,<\	-men,	2a\	-men	2ddZ\,<	-men	2ffZ,<\	-men
!	!	!	!	!	!	!	!	!	!	!	!	!LO:SIC:v:t=custos dd	!	!	!
!	!	!	!	!	!	!	!	!	!	!	!	!LO:LB:g=original	!	!	!
=49-	=49-	=49-	=49-	=49-	=49-	=49-	=49-	=49-	=49-	=49-	=49-	=49-	=49-	=49-	=49-
.	.	.	.	.	.	.	.	2.e\	e-	0g	e-	4dd\	e-	1ee	e-
.	.	.	.	.	.	.	.	.	.	.	.	4cc\	.	.	.
.	.	.	.	.	.	.	.	.	.	.	.	1cc\	.	.	.
.	.	.	.	.	.	.	.	4f\	.	.	.	.	.	.	.
=50-	=50-	=50-	=50-	=50-	=50-	=50-	=50-	=50-	=50-	=50-	=50-	=50-	=50-	=50-	=50-
.	.	.	.	.	.	.	.	2g\	.	.	.	.	.	1dd	.
!	!	!	!	!	!	!	!	!	!	!	!	!LO:N:acc=#	!	!	!
.	.	.	.	.	.	.	.	2G/	.	.	.	2bn/	.	.	.
!LO:SIC:v:t=custos c	!	!	!	!	!	!	!	!	!	!	!	!	!	!	!
!LO:LB:g=original	!	!	!	!	!	!	!	!	!	!	!	!	!	!	!
=51-	=51-	=51-	=51-	=51-	=51-	=51-	=51-	=51-	=51-	=51-	=51-	=51-	=51-	=51-	=51-
2r	.	2r	.	2r	.	2r	.	2cZ,</	-ius	2gZ,</	-ius	2ccZ,<\	-ius	2eeZ,<\	-ius
2c\	et	2c/	et	2g/	et	2cc\	et	2c/	et	2g/	et	2cc\	et	2ee\	et
!	!	!	!	!	!	!LO:SIC:v:t=custos a	!	!	!	!	!	!	!	!	!
!	!	!	!	!	!	!LO:LB:g=original	!	!	!	!	!	!	!	!	!
=52-	=52-	=52-	=52-	=52-	=52-	=52-	=52-	=52-	=52-	=52-	=52-	=52-	=52-	=52-	=52-
2.F/	San-	2.c/	San-	2.f/	San-	2.a\	San-	2.f\	San-	2.a\	San-	2.cc\	San-	2.ff\	San-
4F/	-ctum	4c/Z,<	-ctum	4f/Z,<	-ctum	4a\	-ctum	4f\	-ctum	4a\	-ctum	4ccZ,<\	-ctum	4ffZ,<\	-ctum
=53-	=53-	=53-	=53-	=53-	=53-	=53-	=53-	=53-	=53-	=53-	=53-	=53-	=53-	=53-	=53-
2F/	no-	2c/	no-	2f/	no-	2a\	no-	2f\	no-	2a\	no-	2cc\	no-	2cc\	no-
2F/	-men	2c/	-men	2f/Z,<	-men	2a\	-men	2fZ,<\	-men	2a\	-men	2ccZ,<\	-men	2ffZ,<\	-men
=54-	=54-	=54-	=54-	=54-	=54-	=54-	=54-	=54-	=54-	=54-	=54-	=54-	=54-	=54-	=54-
!	!	!	!	!	!	!	!	!	!	!LO:TX:t=P:problem:tekst niedokładnie podpisany	!	!	!	!	!
0c	e-	0c	e-	2g/	e-	0cc	e-	0c	e-	2g/	e-	0cc	e-	2ee\	e-
.	.	.	.	2f/	.	.	.	.	.	2a\	.	.	.	1ff\	.
=55-	=55-	=55-	=55-	=55-	=55-	=55-	=55-	=55-	=55-	=55-	=55-	=55-	=55-	=55-	=55-
.	.	.	.	1g	.	.	.	.	.	1g	.	.	.	.	.
.	.	.	.	.	.	.	.	.	.	.	.	.	.	2ee\	.
=56-	=56-	=56-	=56-	=56-	=56-	=56-	=56-	=56-	=56-	=56-	=56-	=56-	=56-	=56-	=56-
0F	-ius.	0c	-ius	0f	-ius	0a	-ius	0f	-ius.	0a	-ius.	0cc	-ius.	0ff	-ius.
!	!	!	!	!	!	!	!	!	!	!	!	!LO:SIC:v:t=custos dd	!	!	!
!	!	!LO:LB:g=original	!	!LO:LB:g=original	!	!	!	!LO:PB:g=original	!	!LO:PB:g=original	!	!LO:PB:g=original	!	!LO:PB:g=original	!
=57-	=57-	=57-	=57-	=57-	=57-	=57-	=57-	=57-	=57-	=57-	=57-	=57-	=57-	=57-	=57-
*M2/2	*	*	*	*M2/2	*	*M2/2	*	*M2/2	*	*M2/2	*	*M2/2	*	*	*
*met(C|)	*	*	*	*met(C|)	*	*met(C|)	*	*met(C|)	*	*met(C|)	*	*met(C|)	*	*	*
0r	.	0r	.	0r	.	0r	.	1f	Fe-	1a	Fe-	1dd	Fe-	1ff	Fe-
=58-	=58-	=58-	=58-	=58-	=58-	=58-	=58-	=58-	=58-	=58-	=58-	=58-	=58-	=58-	=58-
.	.	.	.	.	.	.	.	2d\	-cit	2b-\	-cit	2ff\	-cit	2dd\	-cit
.	.	.	.	.	.	.	.	2c/	po-	2cc\	po-	2ee\	po-	2ee\	po-
=59-	=59-	=59-	=59-	=59-	=59-	=59-	=59-	=59-	=59-	=59-	=59-	=59-	=59-	=59-	=59-
1r	.	1r	.	1r	.	1r	.	2.B-/	-ten-	2.f/	-ten-	2.dd\	-ten-	2.ff\	-ten-
.	.	.	.	.	.	.	.	4B-/	-ti-	4f/	-ti-	4dd\	-ti-	4ff\	-ti-
=60-	=60-	=60-	=60-	=60-	=60-	=60-	=60-	=60-	=60-	=60-	=60-	=60-	=60-	=60-	=60-
2r	.	2r	.	2r	.	2r	.	1B-	-am	1b-	-am	1dd	-am	1ff	-am
2B-\	Fe-	2d\	Fe-	2b-\	Fe-	2dd\	Fe-	.	.	.	.	.	.	.	.
=61-	=61-	=61-	=61-	=61-	=61-	=61-	=61-	=61-	=61-	=61-	=61-	=61-	=61-	=61-	=61-
2A/	-cit	2f\	-cit	2cc\	-cit	2cc\	-cit	0r	.	0r	.	0r	.	0r	.
2G/	po-	2e\	po-	2g/	po-	2b-\	po-	.	.	.	.	.	.	.	.
=62-	=62-	=62-	=62-	=62-	=62-	=62-	=62-	=62-	=62-	=62-	=62-	=62-	=62-	=62-	=62-
2.F/	-ten-	2.f\	-ten-	2.cc\	-ten-	2.a\	-ten-	.	.	.	.	.	.	.	.
4F/	-ti-	4f\	-ti-	4b-\	-ti-	4b-\	-ti-	.	.	.	.	.	.	.	.
=63-	=63-	=63-	=63-	=63-	=63-	=63-	=63-	=63-	=63-	=63-	=63-	=63-	=63-	=63-	=63-
1F	-am	1f	-am	1a	-am	1cc	-am	2r	.	2r	.	2r	.	2r	.
*	*	*	*	*	*	*	*	*	*	*	*ij	*	*ij	*	*
.	.	.	.	.	.	.	.	2f\	Fe-	2cc\	Fe-	2a/	Fe-	2cc\	fe-
=64-	=64-	=64-	=64-	=64-	=64-	=64-	=64-	=64-	=64-	=64-	=64-	=64-	=64-	=64-	=64-
00r	.	00r	.	00r	.	00r	.	2B-/	-cit	2b-\	-cit	2b-/	-cit	2dd\	-cit
.	.	.	.	.	.	.	.	2c/	po-	2a\	po-	2a/	po-	2ee\	po-
=65-	=65-	=65-	=65-	=65-	=65-	=65-	=65-	=65-	=65-	=65-	=65-	=65-	=65-	=65-	=65-
.	.	.	.	.	.	.	.	2.d\	-ten-	2.dd\	-ten-	2f/	-ten-	2.ff\	-ten-
.	.	.	.	.	.	.	.	.	.	.	.	2b-/	-ti-	.	.
.	.	.	.	.	.	.	.	4e\	-ti-	4dd\	-ti-	.	.	4ff\	-ti-
=66-	=66-	=66-	=66-	=66-	=66-	=66-	=66-	=66-	=66-	=66-	=66-	=66-	=66-	=66-	=66-
.	.	.	.	.	.	.	.	2fZ\,<	-am	2cc\	-am	2b-Z/,<	-am	2ffZ\,<	-am
*	*	*	*	*	*	*	*	*	*	*	*Xij	*	*Xij	*	*
.	.	.	.	.	.	.	.	2f\	in	2a\	in	2a/	in	2ff\	in
=67-	=67-	=67-	=67-	=67-	=67-	=67-	=67-	=67-	=67-	=67-	=67-	=67-	=67-	=67-	=67-
.	.	.	.	.	.	.	.	2.c/	bra-	2.g/	bra-	2.cc\	bra-	2.ee\	bra-
.	.	.	.	.	.	.	.	4c/	-chi-	4g/	-chi-	4cc\	-chi-	4ee\	-chi-
=68-	=68-	=68-	=68-	=68-	=68-	=68-	=68-	=68-	=68-	=68-	=68-	=68-	=68-	=68-	=68-
1r	.	1r	.	1r	.	1r	.	1c	-o	1gZ,<	-o	2cc\	-o	1eeZ,<	-o
.	.	.	.	.	.	.	.	.	.	.	.	1cc\	su-	.	.
=69-	=69-	=69-	=69-	=69-	=69-	=69-	=69-	=69-	=69-	=69-	=69-	=69-	=69-	=69-	=69-
2r	.	2r	.	2r	.	2r	.	1g	Su-	1g	Su-	.	.	1dd	Su-
!	!	!	!	!LO:N:acc=#	!	!	!	!	!	!	!	!LO:N:acc=#	!	!	!
2G/	di-	2g\	di-	2bn\	dis-	2dd\	Dis-	.	.	.	.	2bn/	.	.	.
=70-	=70-	=70-	=70-	=70-	=70-	=70-	=70-	=70-	=70-	=70-	=70-	=70-	=70-	=70-	=70-
2c\	-sper-	2e\	-sper-	2e/	-per-	2cc\	-per-	1c	-o	1g	-o	1cc	-o	1ee	-o
!LO:SIC:v:t=custos c	!	!	!	!	!	!	!	!	!	!	!	!	!	!	!
!LO:LB:g=original	!	!	!	!	!	!	!	!	!	!	!	!	!	!	!
4c\	-sit	4e\	-sit	4e/	-sit	4cc\	-ſit	.	.	.	.	.	.	.	.
4c\	ſu-	4e\	su-	4e/	su-	4cc\	ſu-	.	.	.	.	.	.	.	.
=71-	=71-	=71-	=71-	=71-	=71-	=71-	=71-	=71-	=71-	=71-	=71-	=71-	=71-	=71-	=71-
2F/	-per-	2f\	-per-	2a\	-per-	2cc\	-per-	2r	.	2r	.	2r	.	2r	.
!	!	!	!	!	!	!LO:SIC:v:t=custos cc	!	!	!	!	!	!	!	!	!
!	!	!	!	!	!	!LO:LB:g=original	!	!	!	!	!	!	!	!	!
2F/	-bos	2f\	-bos	2a\	-bos	2cc\	-bos	2f\	di-	2a\	dis-	2cc\	dis-	2ff\	dis-
=72-	=72-	=72-	=72-	=72-	=72-	=72-	=72-	=72-	=72-	=72-	=72-	=72-	=72-	=72-	=72-
2r	.	2r	.	2r	.	2r	.	2B-/	-ſper-	2b-\	-per-	2dd\	-per-	2dd\	-per-
!	!	!	!	!	!	!	!	!LO:SIC:v:t=custos B	!	!LO:SIC:v:t=custos b	!	!LO:SIC:v:t=custos dd	!	!	!
!	!	!	!	!	!	!	!	!LO:LB:g=original	!	!LO:LB:g=original	!	!LO:LB:g=original	!	!	!
2B-\	di-	2f\	di-	2f/	di-	2b-\	di-	4B-/	-sit	4b-\	-sit	4dd\	-sit	4dd\	-sit
.	.	.	.	.	.	.	.	4B-/	su-	4b-\	su-	4dd\	su-	4dd\	su-
!	!	!	!	!	!	!	!	!	!	!	!	!	!	!LO:SIC:v:t=custos ff	!
!	!	!	!	!	!	!	!	!	!	!	!	!	!	!LO:LB:g=original	!
=73-	=73-	=73-	=73-	=73-	=73-	=73-	=73-	=73-	=73-	=73-	=73-	=73-	=73-	=73-	=73-
2f\	-sper-	2f\	-ſper-	2a\	-ſper-	2cc\	-sper-	2F/	-per-	2a\	-per-	2cc\	-per-	2ff\	-per-
4f\	-sit	4f\	-sit	4a\	-sit	4cc\	-sit	2F/	-bos	2a\	-bos	2cc\	-bos	2ff\	-bos
4f\	ſu-	4f\	su-	4a\	su-	4cc\	su-	.	.	.	.	.	.	.	.
=74-	=74-	=74-	=74-	=74-	=74-	=74-	=74-	=74-	=74-	=74-	=74-	=74-	=74-	=74-	=74-
2c\	-per-	2e\	-per-	2g/	-per-	2cc\	-per-	2r	.	2r	.	2r	.	2r	.
*	*	*	*	*	*	*	*	*	*ij	*	*	*	*ij	*	*ij
2c\	-bo(s)	2e\	-bos	2g/	-bos	2cc\	-bos	2c/	diſ-	2g/	diſ-	2cc\	dis-	2ee\	dis-
=75-	=75-	=75-	=75-	=75-	=75-	=75-	=75-	=75-	=75-	=75-	=75-	=75-	=75-	=75-	=75-
0r	.	0r	.	0r	.	0r	.	2g\	-per-	2b-\	-per-	2b-y/	-per-	2dd\	-per-
.	.	.	.	.	.	.	.	4g\	-sit	4b-\	-sit	4b-/	-sit	4dd\	-sit
.	.	.	.	.	.	.	.	4g\	su-	4b-\	su-	4b-/	su-	4dd\	su-
=76-	=76-	=76-	=76-	=76-	=76-	=76-	=76-	=76-	=76-	=76-	=76-	=76-	=76-	=76-	=76-
.	.	.	.	.	.	.	.	2d\	-per-	2a\	-per-	2dd\	-per-	2ff\	-per-
.	.	.	.	.	.	.	.	2d\	-bos	2a\,<	-bos	2dd\	-bos	2ffZ\,<	-bos
!	!	!	!	!LO:SIC:v:t=custos a	!	!	!	!	!	!	!	!	!	!	!
!	!	!	!	!LO:LB:g=original	!	!	!	!	!	!	!	!	!	!	!
*	*	*	*	*	*	*	*	*	*Xij	*	*	*	*Xij	*	*Xij
=77-	=77-	=77-	=77-	=77-	=77-	=77-	=77-	=77-	=77-	=77-	=77-	=77-	=77-	=77-	=77-
1r	.	1r	.	1r	.	1r	.	2.d\	men-	2.a\	men-	2.dd\	men-	2.ff\	men-
.	.	.	.	.	.	.	.	4e\	-te	4a\	-te	4dd\	-te	4gg\	-te
=78-	=78-	=78-	=78-	=78-	=78-	=78-	=78-	=78-	=78-	=78-	=78-	=78-	=78-	=78-	=78-
2r	.	2r	.	2r	.	2r	.	2f\	cor-	2a\	cor-	2cc\	cor-	2aa\	cor-
*	*ij	*	*	*	*ij	*	*ij	*	*	*	*	*	*	*	*
2d\	di-	2f\	di-	2a\	di-	2dd\	di-	2d\	-dis	2a\	-dis	2dd\	-dis	2ffZ\,<	-dis
=79-	=79-	=79-	=79-	=79-	=79-	=79-	=79-	=79-	=79-	=79-	=79-	=79-	=79-	=79-	=79-
2A/	-ſper-	2a\	-ſper-	2a\	-ſper-	2ee\	-sper-	0a	su-	0a	su-	2cc#X\	su-	2ee\	su-
!	!	!LO:SIC:v:t=custos a	!	!	!	!	!	!	!	!	!	!	!	!	!
!	!	!LO:LB:g=original	!	!	!	!	!	!	!	!	!	!	!	!	!
4A/	-sit	4aZ\,<	-sit	4a\	-sit	4ee\	-sit	.	.	.	.	1dd\	.	2ff\	.
4A/	su-	4a\	su-	4a\	su-	4ee\	su-	.	.	.	.	.	.	.	.
=80-	=80-	=80-	=80-	=80-	=80-	=80-	=80-	=80-	=80-	=80-	=80-	=80-	=80-	=80-	=80-
2A/	-per-	2a\	-per-	2a\	-per-	2ee\	-per-	.	.	.	.	.	.	1ee	.
2AZ/,<	-bos	2aZ\,<	-bos	2a\	-bos	2aZ\,<	-bos	.	.	.	.	2cc#X\	.	.	.
*	*Xij	*	*	*	*Xij	*	*Xij	*	*	*	*	*	*	*	*
=81-	=81-	=81-	=81-	=81-	=81-	=81-	=81-	=81-	=81-	=81-	=81-	=81-	=81-	=81-	=81-
2.d\	men-	2.f\	men-	2.a\	men-	2.a\	men-	1d	-i	1a	-i	1dd	-i	1dd	-i
4eny\	-te	4g\	-te	4a\Z,<	-te	4dd\	-te	.	.	.	.	.	.	.	.
=82-	=82-	=82-	=82-	=82-	=82-	=82-	=82-	=82-	=82-	=82-	=82-	=82-	=82-	=82-	=82-
2f\	cor-	2a\	cor-	2a\	cor-	2cc\	cor-	0r	.	0r	.	0r	.	0r	.
2B-\	-dis	2g\	-dis	2b-y\	-dis	2ddZ\,<	-dis	.	.	.	.	.	.	.	.
=83-	=83-	=83-	=83-	=83-	=83-	=83-	=83-	=83-	=83-	=83-	=83-	=83-	=83-	=83-	=83-
0c	su-	2e\	ſu-	2b-\	su-	0cc	Su-	.	.	.	.	.	.	.	.
.	.	1f\	.	2a\	.	.	.	.	.	.	.	.	.	.	.
=84-	=84-	=84-	=84-	=84-	=84-	=84-	=84-	=84-	=84-	=84-	=84-	=84-	=84-	=84-	=84-
.	.	.	.	1g	.	.	.	1r	.	1r	.	1r	.	1r	.
.	.	2e\	.	.	.	.	.	.	.	.	.	.	.	.	.
=85-	=85-	=85-	=85-	=85-	=85-	=85-	=85-	=85-	=85-	=85-	=85-	=85-	=85-	=85-	=85-
2FZ/,<	-i	2fZ\,<	-i	2aZ\,<	-i	2ccZ\,<	-i	2r	.	2r	.	2r	.	2r	.
4B-\	men-	4f\	men-	4b-\	men-	4dd\	men-	4B-/	men-	4b-\	men-	4dd\	men-	4ff\	men-
4B-\	-te	4f\	-te	4b-\Z,<	-te	4dd\	-te	4B-/	-te	4f/	-te	4ccny\	-te	4ee\	-te
!LO:SIC:v:t=custos b	!	!	!	!	!	!	!	!	!	!	!	!	!	!	!
!LO:LB:g=original	!	!	!	!	!	!	!	!	!	!	!	!	!	!	!
=86-	=86-	=86-	=86-	=86-	=86-	=86-	=86-	=86-	=86-	=86-	=86-	=86-	=86-	=86-	=86-
2B-\	cor-	2f\	cor-	2b-\	cor-	2dd\	cor-	2B-/	cor-	2f/	cor-	2b-/	cor-	2dd\	cor-
2A/	-dis	2fZ\,<	-dis	2f/	-dis	2cc\	-d(is)	2f\	-dis	2f/	-dis	2cc\	-dis	2ff\	-dis
!	!	!	!	!	!	!LO:SIC:v:t=custos b-	!	!	!	!	!	!LO:SIC:v:t=custos dd	!	!	!
!	!	!	!	!	!	!LO:LB:g=original	!	!	!	!	!	!LO:LB:g=original	!	!	!
=87-	=87-	=87-	=87-	=87-	=87-	=87-	=87-	=87-	=87-	=87-	=87-	=87-	=87-	=87-	=87-
0B-	su-	4f\	su-	0f	su-	1.b-	Su-	0B-	Su-	1f	Su-	2.dd\	Su-	2.ff\	Su-
.	.	4e\	.	.	.	.	.	.	.	.	.	.	.	.	.
.	.	4d\	.	.	.	.	.	.	.	.	.	.	.	.	.
.	.	4e\	.	.	.	.	.	.	.	.	.	4cc\	.	4ee\	.
=88-	=88-	=88-	=88-	=88-	=88-	=88-	=88-	=88-	=88-	=88-	=88-	=88-	=88-	=88-	=88-
.	.	1f	.	.	.	.	.	.	.	1b-	.	1b-	.	1dd	.
.	.	.	.	.	.	4a\	.	.	.	.	.	.	.	.	.
.	.	.	.	.	.	4g/	.	.	.	.	.	.	.	.	.
=89-	=89-	=89-	=89-	=89-	=89-	=89-	=89-	=89-	=89-	=89-	=89-	=89-	=89-	=89-	=89-
0F	-i	0f	-i	0f	-i	0a	-i	0f	-i	0cc;;	-i.	0a	-i	0cc	-i
!	!	!LO:LB:g=original	!	!LO:LB:g=original	!	!	!	!LO:LB:g=original	!	!LO:LB:g=original	!	!	!	!LO:LB:g=original	!
!	!	!	!	!LO:SIC:v:t=custos a	!	!	!	!	!	!	!	!	!	!	!
=90-	=90-	=90-	=90-	=90-	=90-	=90-	=90-	=90-	=90-	=90-	=90-	=90-	=90-	=90-	=90-
*M2/2	*	*	*	*	*	*M2/2	*	*	*	*	*	*M2/2	*	*	*
*met(C|)	*	*	*	*	*	*met(C|)	*	*	*	*	*	*met(C|)	*	*	*
2f\	E-	2f\	E-	2a\	E-	2cc\	E-	00r	.	00r	.	00r	.	00r	.
4f\	-su-	4f\	-ſu-	4a\	-su-	4cc\	-su-	.	.	.	.	.	.	.	.
4f\	-ri-	4f\	-ri-	4a\yy	-[ri]-	4cc\	-ri-	.	.	.	.	.	.	.	.
=91-	=91-	=91-	=91-	=91-	=91-	=91-	=91-	=91-	=91-	=91-	=91-	=91-	=91-	=91-	=91-
2d\	-en-	2f\	-en-	2b-\	-en-	2dd\	-en-	.	.	.	.	.	.	.	.
!	!	!	!	!LO:TX:t=P:problem:dźwięk mało widoczny	!	!	!	!	!	!	!	!	!	!	!
4e-XZ\,<	-tes	4g\	-tes	4aZ/,<	-tes	4cc\	-tes	.	.	.	.	.	.	.	.
4e-\	im-	4g\	im-	4a/	im-	4b-\	im-	.	.	.	.	.	.	.	.
=92-	=92-	=92-	=92-	=92-	=92-	=92-	=92-	=92-	=92-	=92-	=92-	=92-	=92-	=92-	=92-
2c\	-ple-	2g\	-ple-	2cc\	-ple-	2ee-X\	-ple-	.	.	.	.	.	.	.	.
2dZ\,<	-vit	2f\	-vit	2a\	-vit	2ddZ\,<	-vit,	.	.	.	.	.	.	.	.
=93-	=93-	=93-	=93-	=93-	=93-	=93-	=93-	=93-	=93-	=93-	=93-	=93-	=93-	=93-	=93-
2.B-\	bo-	1.f	bo-	0b-Z,<	.	4dd\	bo-	.	.	.	.	.	.	.	.
.	.	.	.	.	.	4cc\	.	.	.	.	.	.	.	.	.
.	.	.	.	.	.	4dd\	.	.	.	.	.	.	.	.	.
4c\	.	.	.	.	.	4eeny\	.	.	.	.	.	.	.	.	.
=94-	=94-	=94-	=94-	=94-	=94-	=94-	=94-	=94-	=94-	=94-	=94-	=94-	=94-	=94-	=94-
2d\	.	.	.	.	.	2ff\	.	0r	.	0r	.	0r	.	0r	.
2eny\	.	2g\	.	.	.	4ee\	.	.	.	.	.	.	.	.	.
.	.	.	.	.	.	4dd\	.	.	.	.	.	.	.	.	.
=95-	=95-	=95-	=95-	=95-	=95-	=95-	=95-	=95-	=95-	=95-	=95-	=95-	=95-	=95-	=95-
1f	.	0f	.	2a\	bo-	2cc\	.	.	.	.	.	.	.	.	.
.	.	.	.	1b-\	.	2dd\	.	.	.	.	.	.	.	.	.
=96-	=96-	=96-	=96-	=96-	=96-	=96-	=96-	=96-	=96-	=96-	=96-	=96-	=96-	=96-	=96-
1F	.	.	.	.	.	1cc	.	2f\	E-	2a\	E-	2cc\	E-	2ff\	E-
.	.	.	.	2a\	.	.	.	4f\	-su-	4a\	-su-	4cc\	-su-	4ff\	-su-
.	.	.	.	.	.	.	.	4f\	-ri-	4a\	-ri-	4cc\	-ri-	4ff\	-ri-
!LO:SIC:v:t=custos B-	!	!	!	!	!	!	!	!	!	!	!	!	!	!	!
!LO:LB:g=original	!	!	!	!	!	!	!	!	!	!	!	!	!	!	!
=97-	=97-	=97-	=97-	=97-	=97-	=97-	=97-	=97-	=97-	=97-	=97-	=97-	=97-	=97-	=97-
1B-	-nis	1d	-nis	1b-	-nis	1dd	-nis	2B-/	-en-	2f/	-en-	2b-/	-en-	2ff\	-en-
!	!	!	!	!	!	!LO:SIC:v:t=custos dd	!	!	!	!	!	!	!	!	!
!	!	!	!	!	!	!LO:LB:g=original	!	!	!	!	!	!	!	!	!
.	.	.	.	.	.	.	.	4B-Z/,<	-tes	4b-Z\,<	-tes	4dd\	-tes	4ff\	-tes
.	.	.	.	.	.	.	.	4B-/	im-	4b-\	im-	4dd\	im-	4ff\	im-
=98-	=98-	=98-	=98-	=98-	=98-	=98-	=98-	=98-	=98-	=98-	=98-	=98-	=98-	=98-	=98-
0r	.	0r	.	0r	.	0r	.	2f\	-ple-	2a\	-ple-	2cc\	-ple-	2ff\	-ple-
.	.	.	.	.	.	.	.	2d\	-vit	2b-\	-vit	2dd\Z,<	-vit	2ff\	-vit
=99-	=99-	=99-	=99-	=99-	=99-	=99-	=99-	=99-	=99-	=99-	=99-	=99-	=99-	=99-	=99-
*	*	*	*	*	*	*	*	*	*	*	*	*	*	*lig	*
.	.	.	.	.	.	.	.	2.e\	bo-	0g	bo-	4dd\	bo-	1ee	bo-
.	.	.	.	.	.	.	.	.	.	.	.	4cc\	.	.	.
.	.	.	.	.	.	.	.	.	.	.	.	1cc\	.	.	.
.	.	.	.	.	.	.	.	4f#X\	.	.	.	.	.	.	.
=100-	=100-	=100-	=100-	=100-	=100-	=100-	=100-	=100-	=100-	=100-	=100-	=100-	=100-	=100-	=100-
2r	.	2r	.	2r	.	2r	.	1g	.	.	.	.	.	1dd	.
!	!	!	!	!LO:N:acc=#	!	!	!	!	!	!	!	!LO:N:acc=#	!	!	!
2G/	et	2g\	et	2bnZ\,<	et	2dd\	et	.	.	.	.	2bn/	.	.	.
*	*	*	*	*	*	*	*	*	*	*	*	*	*	*Xlig	*
=101-	=101-	=101-	=101-	=101-	=101-	=101-	=101-	=101-	=101-	=101-	=101-	=101-	=101-	=101-	=101-
4.c\	di-	4.g\	di-	4.g/	di-	4.cc\	di-	1c	-nis	1g	-nis	1cc	-nis	1ee	-nis
8c\	-vi-	8g\	-vi-	8g/	-vi-	8cc\	-vi-	.	.	.	.	.	.	.	.
4c\	-tes	4g\	-tes	4gZ/,<	-tes	4ccZ\,<	-tes	.	.	.	.	.	.	.	.
4c\	di-	4g\	di-	4g/	di-	4cc\	di-	.	.	.	.	.	.	.	.
=102-	=102-	=102-	=102-	=102-	=102-	=102-	=102-	=102-	=102-	=102-	=102-	=102-	=102-	=102-	=102-
1d	-mi-	1f	-mi-	1dd	-mi-	1ff	-mi-	0r	.	0r	.	0r	.	0r	.
=103-	=103-	=103-	=103-	=103-	=103-	=103-	=103-	=103-	=103-	=103-	=103-	=103-	=103-	=103-	=103-
2e-X\	-ſit	2gZ\,<	-ſit	2b-\	-sit	2ee-X\	-ſit	.	.	.	.	.	.	.	.
!	!	!	!	!LO:SIC:v:t=custos cc	!	!	!	!	!	!	!	!	!	!	!
!	!	!	!	!LO:LB:g=original	!	!	!	!	!	!	!	!	!	!	!
2c\	in-	2a\	in-	1cc\	in-	2ee-\	in-	.	.	.	.	.	.	.	.
=104-	=104-	=104-	=104-	=104-	=104-	=104-	=104-	=104-	=104-	=104-	=104-	=104-	=104-	=104-	=104-
0d	-a-	2f#X\	-a-	.	.	0dd	-a-	1r	.	1r	.	1r	.	1r	.
.	.	1g\	.	2b-\	.	.	.	.	.	.	.	.	.	.	.
!	!	!	!	!	!	!	!	!	!	!	!	!LO:SIC:v:t=custos a	!	!	!
!	!	!	!	!	!	!	!	!	!	!	!	!LO:LB:g=original	!	!	!
=105-	=105-	=105-	=105-	=105-	=105-	=105-	=105-	=105-	=105-	=105-	=105-	=105-	=105-	=105-	=105-
.	.	.	.	1a	-a-	.	.	2r	.	2r	.	2r	.	2r	.
.	.	2f#X\	.	.	.	.	.	2d\	et	2dd\	et	2a/	et	2dd\	et
=106-	=106-	=106-	=106-	=106-	=106-	=106-	=106-	=106-	=106-	=106-	=106-	=106-	=106-	=106-	=106-
2GZ/,<	-nes	2g\	-nes	2b-Z\,<	-nes	2ddZ\,<	-nes	4.g\	di-	4.b-\	di-	4.g/	di-	4.dd\	di-
.	.	.	.	.	.	.	.	8g\	-vi-	8b-\	-vi-	8g/	-vi-	8dd\	-vi-
!	!	!LO:SIC:v:t=custos g	!	!	!	!	!	!	!	!	!	!	!	!	!
!	!	!LO:LB:g=original	!	!	!	!	!	!	!	!	!	!	!	!	!
2G/	et	2g\	et	2b-\	et	2dd\	et	4g\	-tes	4b-\	-tes	4dd\	-tes	4dd\	-tes
.	.	.	.	.	.	.	.	4g\	di-	4g/	di-	4dd\	di-	4dd\	di-
=107-	=107-	=107-	=107-	=107-	=107-	=107-	=107-	=107-	=107-	=107-	=107-	=107-	=107-	=107-	=107-
4.d\	di-	4.fny\	di-	4.dd\	di-	4.dd\	di-	2d\	-mi-	2a\	-mi-	2dd\	-mi-	2ff\	-mi-
8d\	-vi-	8f\	-vi-	8dd\	-vi-	8dd\	-vi-	.	.	.	.	.	.	.	.
4d\	-tes	4f\	-tes	4b-\	-tes	4ddZ\,<	-tes	2d\	-ſit	2a\	-ſit	2dd\	-ſit	2ff\	-sit
4d\	di-	4f\	di-	4a\	di-	4dd\	di-	.	.	.	.	.	.	.	.
=108-	=108-	=108-	=108-	=108-	=108-	=108-	=108-	=108-	=108-	=108-	=108-	=108-	=108-	=108-	=108-
1A	-mi-	1e	-mi-	1a	-mi-	1cc	-mi-	2r	.	2r	.	2r	.	2r	.
.	.	.	.	.	.	.	.	2a\	di-	2a\	di-	2cc\	di-	2ee\	di-
=109-	=109-	=109-	=109-	=109-	=109-	=109-	=109-	=109-	=109-	=109-	=109-	=109-	=109-	=109-	=109-
2A/	-sit	2e\	-sit	2a\	-sit	2cc\	-ſit	2a\	-mi-	2a\	-mi-	2cc\	-mi-	2ee\	-mi-
!	!	!	!	!	!	!	!	!LO:SIC:v:t=custos A	!	!	!	!	!	!	!
!	!	!	!	!	!	!	!	!LO:LB:g=original	!	!	!	!	!	!	!
2A/	in-	2e\	di-	2a\	in-	2cc\	in-	4A/	-ſit	4a\	-ſit	4cc\	-sit	4ee\,<	-sit
.	.	.	.	.	.	.	.	4A/	in-	4a\	di-	4cc\	in-	4ee\	in-
=110-	=110-	=110-	=110-	=110-	=110-	=110-	=110-	=110-	=110-	=110-	=110-	=110-	=110-	=110-	=110-
2.F/	-a-	2A/	-mi-	2.a\	-a-	4cc\	-a-	2c/	-a-	2.a\	-mi-	2cc\	-a-	1.ff	-a-
.	.	.	.	.	.	4b-\	.	.	.	.	.	.	.	.	.
.	.	4A/	-sit	.	.	1a\	.	4cZ/,<	-nes	.	.	4cc\	-nes	.	.
4G/	.	4f\	in-	4g/	.	.	.	4G/	di-	4a\	-ſit	4b-y/	di-	.	.
!LO:SIC:v:t=custos A	!	!	!	!	!	!	!	!	!	!LO:SIC:v:t=custos cc	!	!	!	!	!
!LO:PB:g=original	!	!	!	!	!	!	!	!	!	!LO:LB:g=original	!	!	!	!	!
=111-	=111-	=111-	=111-	=111-	=111-	=111-	=111-	=111-	=111-	=111-	=111-	=111-	=111-	=111-	=111-
2A/	.	2f\	-a-	2f/	.	.	.	2c/	-mi-	2cc\	in-	2a/	-mi-	.	.
2B-\	.	2B-/	-nes	2g/	.	1g\	.	4g\	-ſit	1b-\	-a-	4dd\	-sit	4ee\	.
.	.	.	.	.	.	.	.	4g\	in-	.	.	4dd\	in-	4dd\	.
!	!	!	!	!	!	!	!	!	!	!	!	!	!	!LO:SIC:v:t=custos dd	!
!	!	!	!	!	!	!	!	!	!	!	!	!	!	!LO:LB:g=original	!
=112-	=112-	=112-	=112-	=112-	=112-	=112-	=112-	=112-	=112-	=112-	=112-	=112-	=112-	=112-	=112-
0c	.	2r	.	2eZ/,<	-nes	.	.	0c	-a-	.	.	0cc	-a-	2ee\	.
.	.	2c/	in-	2a\	in-	2f/	.	.	.	2a\	.	.	.	1ff\	.
=113-	=113-	=113-	=113-	=113-	=113-	=113-	=113-	=113-	=113-	=113-	=113-	=113-	=113-	=113-	=113-
.	.	1g	-a-	1cc	-a-	1cc	.	.	.	1g	.	.	.	.	.
.	.	.	.	.	.	.	.	.	.	.	.	.	.	2ee\	.
=114-	=114-	=114-	=114-	=114-	=114-	=114-	=114-	=114-	=114-	=114-	=114-	=114-	=114-	=114-	=114-
0F	-nes	0f	-nes.	0cc	-nes	0a	-nes.	0fny	-nes	0a	-nes	0cc	-nes.	0ff	-nes
!	!	!LO:LB:g=original	!	!LO:PB:g=original	!	!LO:LB:g=original	!	!	!	!	!	!LO:LB:g=original	!	!	!
=115-	=115-	=115-	=115-	=115-	=115-	=115-	=115-	=115-	=115-	=115-	=115-	=115-	=115-	=115-	=115-
*M2/2	*	*	*	*M2/2	*	*	*	*clefC3	*	*M2/2	*	*M2/2	*	*M2/2	*
*met(C|)	*	*	*	*met(C|)	*	*	*	*k[b-]	*	*met(C|)	*	*met(C|)	*	*met(C|)	*
0r	.	0r	.	0r	.	0r	.	2f\	Si-	2f/	Si-	2a/	Si-	2cc\	Si-
.	.	.	.	.	.	.	.	4f\	-cut	4f/	-cut	4a/	-cut	4cc\	-cut
.	.	.	.	.	.	.	.	4f\	lo-	4f/	lo-	4a/	lo-	4cc\	lo-
=116-	=116-	=116-	=116-	=116-	=116-	=116-	=116-	=116-	=116-	=116-	=116-	=116-	=116-	=116-	=116-
.	.	.	.	.	.	.	.	2B-/	-cu-	2f/	-cu-	2dd\	-cu-	2b-/	-cu-
.	.	.	.	.	.	.	.	2A/	-tus	2a\	-tus	2cc\	-[tus]	2cc\	-tus
=117-	=117-	=117-	=117-	=117-	=117-	=117-	=117-	=117-	=117-	=117-	=117-	=117-	=117-	=117-	=117-
2B-\	Si-	2f\	Si-	2b-\	Si-	2dd\	Si-	1B-	eſt	1f	eſt	1b-	eſt	1dd	eſt
4B-\	-cut	4f\	-cut	4b-\	-cut	4dd\	-cut	.	.	.	.	.	.	.	.
4B-\Z,<	lo-	4f\	lo-	4b-\	lo-	4dd\	lo-	.	.	.	.	.	.	.	.
=118-	=118-	=118-	=118-	=118-	=118-	=118-	=118-	=118-	=118-	=118-	=118-	=118-	=118-	=118-	=118-
2F/	-cu-	2f\	-cu-	2a\	-cu-	2cc\	-cu-	00r	.	00r	.	00r	.	00r	.
2GZ/,<	-tus	2d\	-tus	2g/	-tus	2b-\	-tus	.	.	.	.	.	.	.	.
=119-	=119-	=119-	=119-	=119-	=119-	=119-	=119-	=119-	=119-	=119-	=119-	=119-	=119-	=119-	=119-
2d\	eſt	2f#X\	eſt	2a\	eſt	2dd\	eſt	.	.	.	.	.	.	.	.
2e-X\	ad	2g\	ad	2g/	ad	2b-\	ad	.	.	.	.	.	.	.	.
=120-	=120-	=120-	=120-	=120-	=120-	=120-	=120-	=120-	=120-	=120-	=120-	=120-	=120-	=120-	=120-
2c\	Pat-	2e-X\	Pat-	2a\	Pat-	2cc\	P(at)-	.	.	.	.	.	.	.	.
2B-\	-res	2fny\	-res	2b-\	-res	2dd\	-res	.	.	.	.	.	.	.	.
=121-	=121-	=121-	=121-	=121-	=121-	=121-	=121-	=121-	=121-	=121-	=121-	=121-	=121-	=121-	=121-
2f\	no-	1f	no-	(>2b-\	no-	1cc	no-	.	.	.	.	.	.	.	.
2F/	.	.	.	2a\)	.	.	.	.	.	.	.	.	.	.	.
!LO:SIC:v:t=custos B	!	!	!	!	!	!	!	!	!	!	!	!	!	!	!
!LO:LB:g=original	!	!	!	!	!	!	!	!	!	!	!	!	!	!	!
=122-	=122-	=122-	=122-	=122-	=122-	=122-	=122-	=122-	=122-	=122-	=122-	=122-	=122-	=122-	=122-
1B-	-stros	1f	-ſtros	1b-	-ſtros	1dd	-ſtros	2r	.	2r	.	2r	.	2r	.
.	.	.	.	.	.	.	.	2B-/	ad	2f/	ad	2b-/	ad	2dd\	ad
=123-	=123-	=123-	=123-	=123-	=123-	=123-	=123-	=123-	=123-	=123-	=123-	=123-	=123-	=123-	=123-
0r	.	0r	.	0r	.	0r	.	2G/	P(at)-	2g/	Pat-	2b-/	Pat-	2dd\	P(at)-
.	.	.	.	.	.	.	.	2GZ/	-res	2gZ/,<	-res	2b-Z/,<	-res	2ee\	-res
!	!	!	!	!	!	!	!	!LO:SIC:v:t=custos A	!	!	!	!	!	!	!
!	!	!	!	!	!	!	!	!LO:LB:g=original	!	!	!	!	!	!	!
=124-	=124-	=124-	=124-	=124-	=124-	=124-	=124-	=124-	=124-	=124-	=124-	=124-	=124-	=124-	=124-
.	.	.	.	.	.	.	.	0A	no-	2g/	no-	0a	no-	2cc#X\	no-
.	.	.	.	.	.	.	.	.	.	2f/	.	.	.	1dd\	.
=125-	=125-	=125-	=125-	=125-	=125-	=125-	=125-	=125-	=125-	=125-	=125-	=125-	=125-	=125-	=125-
1r	.	1r	.	1r	.	1r	.	.	.	1e	.	.	.	.	.
.	.	.	.	.	.	.	.	.	.	.	.	.	.	2cc#X\	.
!	!	!	!	!	!	!	!	!	!	!LO:SIC:v:t=custos f	!	!	!	!	!
!	!	!	!	!	!	!	!	!	!	!LO:LB:g=original	!	!	!	!	!
=126-	=126-	=126-	=126-	=126-	=126-	=126-	=126-	=126-	=126-	=126-	=126-	=126-	=126-	=126-	=126-
2.D/	A-	2.f#X\	A-	2.a\	A-	2.dd\	A-	1dZ,<	-ſtros	1f#XZ,<	-ſtros	1aZ,<	-ſtros	1ddZ,<	-ſtros
4D/	-bra-	4f#\	-bra-	4a\	-bra-	4dd\	-bra-	.	.	.	.	.	.	.	.
=127-	=127-	=127-	=127-	=127-	=127-	=127-	=127-	=127-	=127-	=127-	=127-	=127-	=127-	=127-	=127-
1D	-ham	1f#	-ham	1aZ,<	-ham	1ddZ,<	-ham	2.d\	A-	2.a\	A-	2.dd\	A-	2.ff#X\	A-
.	.	.	.	.	.	.	.	4d\	-bra-	4a\	-bra-	4dd\	-bra-	4ff#\	-bra-
!	!	!	!	!	!	!	!	!	!	!	!	!	!	!LO:SIC:v:t=custos gg	!
!	!	!	!	!	!	!	!	!	!	!	!	!	!	!LO:LB:g=original	!
=128-	=128-	=128-	=128-	=128-	=128-	=128-	=128-	=128-	=128-	=128-	=128-	=128-	=128-	=128-	=128-
*	*	*	*	*	*	*	*ij	*	*	*	*	*	*	*	*
!	!	!	!	!	!	!	!	!	!	!LO:N:acc=#	!	!	!	!	!
2.G/	A-	2.d\	A-	2.g/	A-	2.dd\	A-	1G	-ham	1bnZ,<	-ham	1dd	-ham	1ggZ,<	-ham
4G/	-bra-	4d\	-bra-	4g/	-bra-	4dd\	-bra-	.	.	.	.	.	.	.	.
=129-	=129-	=129-	=129-	=129-	=129-	=129-	=129-	=129-	=129-	=129-	=129-	=129-	=129-	=129-	=129-
*	*	*	*	*	*	*	*	*	*	*	*ij	*	*	*	*
!	!	!	!	!	!	!	!	!	!	!	!	!LO:N:acc=#	!	!	!
1G	-ham	1g	-ham	1gZ	-ham	1ddZ	-ham	2.g\	A-	2.g/	A-	2.bn/	A-	2.dd\	A-
.	.	.	.	.	.	.	.	4g\	-bra-	4g/	-bra-	4b/	-bra-	4dd\	-bra-
*	*	*	*	*	*	*	*Xij	*	*	*	*	*	*	*	*
=130-	=130-	=130-	=130-	=130-	=130-	=130-	=130-	=130-	=130-	=130-	=130-	=130-	=130-	=130-	=130-
00r	.	00r	.	00r	.	00r	.	2c/	-ham	2g/	-ham	2cc\	-ham	2ee-X\	-ham
*	*	*	*	*	*	*	*	*	*	*	*Xij	*	*	*	*
.	.	.	.	.	.	.	.	2c/	et	2gZ/,<	et	2cc\	et	2ee-Z\,<	et
=131-	=131-	=131-	=131-	=131-	=131-	=131-	=131-	=131-	=131-	=131-	=131-	=131-	=131-	=131-	=131-
.	.	.	.	.	.	.	.	2.e-X\	ſe-	2.g/	se-	2.b-/	ſe-	2.b-/	se-
.	.	.	.	.	.	.	.	4e-\	-mi-	4g/	-mi-	4a/	-mi-	4ccny\	-mi-
!	!	!	!	!	!	!	!	!	!	!	!	!LO:SIC:v:t=custos b	!	!	!
!	!	!	!	!	!	!	!	!	!	!	!	!LO:LB:g=original	!	!	!
=132-	=132-	=132-	=132-	=132-	=132-	=132-	=132-	=132-	=132-	=132-	=132-	=132-	=132-	=132-	=132-
.	.	.	.	.	.	.	.	2B-/	-ni	2fny/	-ni	2b-Z/,<	-ni	2ddZ\,<	-ni
.	.	.	.	.	.	.	.	2B-/	e-	2f/	e-	2b-/	e-	2dd\	e-
=133-	=133-	=133-	=133-	=133-	=133-	=133-	=133-	=133-	=133-	=133-	=133-	=133-	=133-	=133-	=133-
.	.	.	.	.	.	.	.	2c/	-ius	2e-X/	-ius	2aZ/,<	-ius	2ee-XZ\,<	-ius
.	.	.	.	.	.	.	.	2e-X\	in	2g/	in	2g/	in	2cc\	in
=134-	=134-	=134-	=134-	=134-	=134-	=134-	=134-	=134-	=134-	=134-	=134-	=134-	=134-	=134-	=134-
1r	.	1r	.	1r	.	1r	.	2c/	Sae-	2g/	Sae-	2cc\	Sae-	2ee-X\	Sae-
!	!	!	!	!	!	!	!	!	!	!LO:TX:b:t=P:problem:# below	!	!	!	!	!
.	.	.	.	.	.	.	.	2d\	-cu-	2f#X/	-cu-	2a/	-cu-	2dd\	-cu-
!	!	!	!	!LO:SIC:v:t=custos b	!	!	!	!	!	!	!	!	!	!	!
!	!	!	!	!LO:LB:g=original	!	!	!	!	!	!	!	!	!	!	!
=135-	=135-	=135-	=135-	=135-	=135-	=135-	=135-	=135-	=135-	=135-	=135-	=135-	=135-	=135-	=135-
!	!	!	!	!	!	!	!	!	!	!	!	!LO:N:acc=#	!	!	!
2r	.	2r	.	2r	.	2r	.	1G	-la	1g	-la	1bn	-la	1dd	-la
!	!	!	!	!LO:N:acc=#	!	!	!	!	!	!	!	!	!	!	!
2G/	et	2g\	et	2bn\	et	2dd\	et	.	.	.	.	.	.	.	.
!	!	!LO:SIC:v:t=custos g	!	!	!	!	!	!	!	!	!	!	!	!	!
!	!	!LO:PB:g=original	!	!	!	!	!	!	!	!	!	!	!	!	!
=136-	=136-	=136-	=136-	=136-	=136-	=136-	=136-	=136-	=136-	=136-	=136-	=136-	=136-	=136-	=136-
4.c\	se-	4.eny\	se-	4.g/	se-	4.cc\	ſe-	0r	.	0r	.	0r	.	0r	.
8c\	-mi-	8e\	-mi-	8g/	-mi-	8cc\	-mi-	.	.	.	.	.	.	.	.
!	!	!	!	!	!	!LO:SIC:v:t=custos cc	!	!	!	!	!	!	!	!	!
!	!	!	!	!	!	!LO:PB:g=original	!	!	!	!	!	!	!	!	!
4A/	-ni	4fny\	-ni	4gZ/,<	-ni	4ccZ\,<	-ni	.	.	.	.	.	.	.	.
4A/	e-	4f\	e-	4g/	e-	4cc\	e-	.	.	.	.	.	.	.	.
=137-	=137-	=137-	=137-	=137-	=137-	=137-	=137-	=137-	=137-	=137-	=137-	=137-	=137-	=137-	=137-
2B-\	-ius	2d\Z,<	-ius	2g/	-ius	2dd\	-ius	.	.	.	.	.	.	.	.
2d\	in	2f\	in	2f/	in	2dd\	in	.	.	.	.	.	.	.	.
=138-	=138-	=138-	=138-	=138-	=138-	=138-	=138-	=138-	=138-	=138-	=138-	=138-	=138-	=138-	=138-
2B-\	Sae-	2f\	sae-	2.g/	Sae-	2dd\	Sae-	1r	.	1r	.	1r	.	1r	.
2c\	-cu-	2e\	-cu-	.	.	2cc\	-cu-	.	.	.	.	.	.	.	.
.	.	.	.	4g/	-cu-	.	.	.	.	.	.	.	.	.	.
=139-	=139-	=139-	=139-	=139-	=139-	=139-	=139-	=139-	=139-	=139-	=139-	=139-	=139-	=139-	=139-
2FZ/,<	-la	2fZ\,<	-la	2aZ\,<	-la	2ccZ\,<	-la	2r	.	2ryy	.	2r	.	2r	.
2F/	et	2f\	et	2a\	et	2cc\	et	2f\	et	2a\	et	2cc\	et	2ffny\	et
!	!	!	!	!	!	!	!	!LO:SIC:v:t=custos B	!	!LO:SIC:v:t=custos b	!	!	!	!	!
!	!	!	!	!	!	!	!	!LO:LB:g=original	!	!	!LO:LB:g=original	!	!	!	!
=140-	=140-	=140-	=140-	=140-	=140-	=140-	=140-	=140-	=140-	=140-	=140-	=140-	=140-	=140-	=140-
2.B-\	se-	2.f\	se-	2.f/	se-	2.dd\	se-	2.B-/	se-	2.b-\	se-	2.b-/	se-	2.ff\	se-
4B-\	-mi-	4f\	-mi-	4f/	-mi-	4dd\	-mi-	4B-/	-mi-	4b-\	-mi-	4b-/	-mi-	4ff\	-mi-
!LO:SIC:v:t=custos F	!	!	!	!	!	!	!	!	!	!	!	!	!	!	!
!LO:LB:g=original	!	!	!	!	!	!	!	!	!	!	!	!	!	!	!
=141-	=141-	=141-	=141-	=141-	=141-	=141-	=141-	=141-	=141-	=141-	=141-	=141-	=141-	=141-	=141-
2F/	-ni	2f\	-ni	2aZ\,<	-ni	2ccZ\,<	-ni	2fZ\,<	-ni	2aZ\,<	-ni	2ccZ\,<	-ni	2ffZ\,<	-ni
2F/	e-	2f\	e-	2a\	e-	2cc\	e-	2f\	e-	2a\	e-	2cc\	e-	2ff\	e-
=142-	=142-	=142-	=142-	=142-	=142-	=142-	=142-	=142-	=142-	=142-	=142-	=142-	=142-	=142-	=142-
2B-\,<	-ius	2f\	-ius	2f/	-ius	2b-Z\,<	-ius	2B-Z/,<	-ius	2b-\	-ius	2dd\	-ius	2ddZ\,<	-ius
2f\	in	2f\	in	2a\	in	2ccZ\,<	in	2F/	in	2a\	in	2cc\	in	2ff\	in
=143-	=143-	=143-	=143-	=143-	=143-	=143-	=143-	=143-	=143-	=143-	=143-	=143-	=143-	=143-	=143-
!	!	!	!	!	!	!	!	!	!	!LO:TX:t=P:problem:brak tekstu	!	!	!	!	!
1.B-	sae-	2.f\	sae-	1.f	Sae-	2.dd\	Sae-	1.B-	Sae-	1.b-	[Sae-	2.b-/	sae-	4ff\	Sae-
.	.	.	.	.	.	.	.	.	.	.	.	.	.	4eeny\	.
!	!	!	!	!	!	!	!	!	!	!	!	!	!	!LO:SIC:v:t=custos dd	!
!	!	!	!	!	!	!	!	!	!	!	!	!	!	!LO:LB:g=original	!
.	.	.	.	.	.	.	.	.	.	.	.	.	.	4dd\	.
.	.	4e\	.	.	.	4cc\	.	.	.	.	.	4cc\	.	4ee\	.
=144-	=144-	=144-	=144-	=144-	=144-	=144-	=144-	=144-	=144-	=144-	=144-	=144-	=144-	=144-	=144-
.	.	2.d\	.	.	.	2b-\	.	.	.	.	.	2dd\	.	2.ff\	.
2B-\	-cu-	.	.	2f/	-cu-	2b-\	-cu-	2B-/	-cu-	2fny/	-cu-	2dd\	-cu-	.	.
.	.	4e\	-cu-	.	.	.	.	.	.	.	.	.	.	4ff\	-cu-
=145-	=145-	=145-	=145-	=145-	=145-	=145-	=145-	=145-	=145-	=145-	=145-	=145-	=145-	=145-	=145-
0F	-la.	0f	-la.	0f	-la.	0a	-la.	0f	-la	0a	-la.]	0cc	-la.	0ff	-la
!	!	!LO:LB:g=original	!	!LO:LB:g=original	!	!	!	!	!	!	!	!LO:PB:g=original	!	!	!
=146-	=146-	=146-	=146-	=146-	=146-	=146-	=146-	=146-	=146-	=146-	=146-	=146-	=146-	=146-	=146-
*M2/2	*	*M2/2	*	*M2/2	*	*M2/2	*	*M2/2	*	*M2/2	*	*M2/2	*	*M2/2	*
*met(C|)	*	*met(C|)	*	*met(C|)	*	*met(C|)	*	*met(C|)	*	*met(C|)	*	*met(C|)	*	*met(C|)	*
2F/	Si-	2c/	Si-	2f/	Si-	2a\	Si-	2f\	Si-	2a\	Si-	2cc\	Si-	2cc\	Si-
2FZ/,<	-cut	2c/	-cut	2f/	-cut	2aZ\,<	-cut	2fZ\,<	-cut	2a\	-cut	2ccZ\,<	-cut	2cc\	-cut
=147-	=147-	=147-	=147-	=147-	=147-	=147-	=147-	=147-	=147-	=147-	=147-	=147-	=147-	=147-	=147-
1F	e-	1c	e-	1f	e-	1a	e-	1f	e-	1a	e-	1cc	e-	1ff	e-
=148-	=148-	=148-	=148-	=148-	=148-	=148-	=148-	=148-	=148-	=148-	=148-	=148-	=148-	=148-	=148-
2cZ\,<	-rat	2cZ/,<	-rat	2gZ/,<	-rat	2ccZ\,<	-rat	2c/	-rat	2g/	-rat	2cc\	-rat	2ee\	-rat
4c\	in	4g\	in	4g/	in	4cc\	in	4c/	in	4g/	in	4cc\	in	4ee\	in
4c\	prin-	4g\	prin-	4g/	prin-	4cc\	prin-	4c/	prin-	4g/	prin-	4cc\	prin-	4ee\	prin-
=149-	=149-	=149-	=149-	=149-	=149-	=149-	=149-	=149-	=149-	=149-	=149-	=149-	=149-	=149-	=149-
2.A/	-ci-	2.f\	-ci-	2.cc\	-ci-	2.cc\	-ci-	2.f\	-ci-	2.a\	-ci-	2.cc\	-ci-	2.ff\	-ci-
4A/	-pi-	4c/	-pi-	4cc\	-pi-	4cc\	-pi-	4f\	-pi-	4a\	-pi-	4cc\	-pi-	4ff\	-pi-
!	!	!	!	!	!	!	!	!LO:SIC:v:t=custos c	!	!	!	!	!	!	!
!	!	!	!	!	!	!	!	!LO:PB:g=origianl	!	!	!	!	!	!	!
=150-	=150-	=150-	=150-	=150-	=150-	=150-	=150-	=150-	=150-	=150-	=150-	=150-	=150-	=150-	=150-
2B-\	-o	2g\	-o	2gZ/,<	-o	2b-Z\,<	-o	2c/	-o	2f/	-o.	2dd\	-o	2dd\	-o
!LO:LB:g=original	!	!	!	!	!	!	!	!	!	!LO:PB:g=original	!	!	!	!	!
!LO:SIC:v:t=custos c	!	!	!	!	!	!	!	!	!	!	!	!	!	!	!
2c\	et	2e\	et	2cc\	et	2aZ\,<	et	2r	.	2r	.	2r	.	2r	.
=151-	=151-	=151-	=151-	=151-	=151-	=151-	=151-	=151-	=151-	=151-	=151-	=151-	=151-	=151-	=151-
2d\	nunc	2f\	nunc	2a\	nunc	2aZ\,<	nunc	0r	.	0r	.	0r	.	0r	.
2B-\	et	2g\	et	2b-y\	et	2dd\	et	.	.	.	.	.	.	.	.
=152-	=152-	=152-	=152-	=152-	=152-	=152-	=152-	=152-	=152-	=152-	=152-	=152-	=152-	=152-	=152-
0c	Sem-	2e\	Sem-	2b-\	Sem-	0cc	Sem-	.	.	.	.	.	.	.	.
.	.	1f\	.	2a\	.	.	.	.	.	.	.	.	.	.	.
=153-	=153-	=153-	=153-	=153-	=153-	=153-	=153-	=153-	=153-	=153-	=153-	=153-	=153-	=153-	=153-
.	.	.	.	1g	.	.	.	1r	.	1r	.	1r	.	1r	.
.	.	2e\	.	.	.	.	.	.	.	.	.	.	.	.	.
=154-	=154-	=154-	=154-	=154-	=154-	=154-	=154-	=154-	=154-	=154-	=154-	=154-	=154-	=154-	=154-
1F	-per	1f	-per	1a	-per	1cc	-per	2r	.	2r	.	2r	.	2r	.
.	.	.	.	.	.	.	.	2f\	et	2a\	et	2ccZ\,<	et	2ff\	et
=155-	=155-	=155-	=155-	=155-	=155-	=155-	=155-	=155-	=155-	=155-	=155-	=155-	=155-	=155-	=155-
0r	.	0r	.	0r	.	0r	.	2cZ/,<	nunc	2g/	nunc	2cc\	nunc	2ee-X\	nunc
.	.	.	.	.	.	.	.	2c/	et	2g/	et	2ccZ\,<	et	2ee-\	et
=156-	=156-	=156-	=156-	=156-	=156-	=156-	=156-	=156-	=156-	=156-	=156-	=156-	=156-	=156-	=156-
*	*	*	*	*	*	*	*	*	*	*	*	*	*	*lig	*
.	.	.	.	.	.	.	.	2.d\	ſem-	2.f/	sem-	4cc\	ſem-	1dd	sem-
.	.	.	.	.	.	.	.	.	.	.	.	4b-/	.	.	.
.	.	.	.	.	.	.	.	.	.	.	.	1b-/	.	.	.
.	.	.	.	.	.	.	.	4eny\	.	4g/	.	.	.	.	.
=157-	=157-	=157-	=157-	=157-	=157-	=157-	=157-	=157-	=157-	=157-	=157-	=157-	=157-	=157-	=157-
2r	.	2r	.	2r	.	2r	.	2f\	.	4a\	.	.	.	1cc	.
.	.	.	.	.	.	.	.	.	.	4b-\	.	.	.	.	.
4f\	et	4f\	et	4a\	et	4cc\	et	2F/	.	4cc\	.	2a/	.	.	.
4f\	in	4f\	in	4a\	[in]	4cc\	in	.	.	4f/	.	.	.	.	.
*	*	*	*	*	*	*	*	*	*	*	*	*	*	*Xlig	*
=158-	=158-	=158-	=158-	=158-	=158-	=158-	=158-	=158-	=158-	=158-	=158-	=158-	=158-	=158-	=158-
2.B-\	Sae-	2.f\	Sae-	2.f/	Sae-	2.b-\	Sae-	1B-	-per	1f	-per	1b-	-per	1dd	-per
4B-\	-cu-	4f\	-cu-	4b-\	-cu-	4b-\	-cu-	.	.	.	.	.	.	.	.
!	!	!	!	!	!	!	!	!	!	!	!	!	!	!LO:SIC:v:t=custos ff	!
!	!	!	!	!	!	!	!	!	!	!	!	!	!	!LO:PB:g=original	!
=159-	=159-	=159-	=159-	=159-	=159-	=159-	=159-	=159-	=159-	=159-	=159-	=159-	=159-	=159-	=159-
1F	-la	1f	-la	1a	-la	1cc	-la	2r	.	2r	.	2r	.	2r	.
.	.	.	.	.	.	.	.	4f\	et	4a\	et	4cc\	et	4ff\	et
.	.	.	.	.	.	.	.	4f\	in	4a\	in	4cc\	in	4ff\	in
!	!	!	!	!LO:SIC:v:t=custos g	!	!	!	!	!	!	!	!	!	!	!
!	!	!	!	!LO:LB:g=original	!	!	!	!	!	!	!	!	!	!	!
=160-	=160-	=160-	=160-	=160-	=160-	=160-	=160-	=160-	=160-	=160-	=160-	=160-	=160-	=160-	=160-
00r	.	00r	.	00r	.	00r	.	2.c/	Sae-	2.g/	Sae-	2.cc\	Sae-	2.ee-X\	Sae-
.	.	.	.	.	.	.	.	4c/	-cu-	4g/	-cu-	4cc\	-cu-	4ee-\	-cu-
=161-	=161-	=161-	=161-	=161-	=161-	=161-	=161-	=161-	=161-	=161-	=161-	=161-	=161-	=161-	=161-
.	.	.	.	.	.	.	.	2g\	-la	2b-Z\,<	-la	2b-Z/,<	-la	2ddZ\,<	-la
.	.	.	.	.	.	.	.	1G/	sae-	1b-\	Sae-	1b-\	sae-	1dd\	sae-
!	!	!	!	!	!	!	!	!	!	!	!	!LO:SIC:v:t=custos cc	!	!	!
!	!	!	!	!	!	!	!	!	!	!	!	!LO:LB:g=original	!	!	!
=162-	=162-	=162-	=162-	=162-	=162-	=162-	=162-	=162-	=162-	=162-	=162-	=162-	=162-	=162-	=162-
.	.	.	.	.	.	.	.	2A/	-cu-	2a\	-cu-	2cc\	-cu-	2cc\	-cu-
=163-	=163-	=163-	=163-	=163-	=163-	=163-	=163-	=163-	=163-	=163-	=163-	=163-	=163-	=163-	=163-
.	.	.	.	.	.	.	.	2B-/	-lo-	2g/	-lo-	2b-/	-lo-	2dd\	-lo-
.	.	.	.	.	.	.	.	2d\	-rum	2fZ/,<	-rum	2a/	-rum	2ffZ\,<	-rum
!	!	!LO:SIC:v:t=custos c	!	!	!	!	!	!	!	!	!	!	!	!	!
!	!	!LO:LB:g=original	!	!	!	!	!	!	!	!	!	!	!	!	!
=164-	=164-	=164-	=164-	=164-	=164-	=164-	=164-	=164-	=164-	=164-	=164-	=164-	=164-	=164-	=164-
2r	.	2r	.	2r	.	2r	.	1c	a-	1g	a-	1cc	A-	(>2ff\	A-
4c\	et	4c/	et	4g/	et	4cc\	et	.	.	.	.	.	.	2ee\)	.
4c\	in	4c/	in	4g/	in	4cc\	in	.	.	.	.	.	.	.	.
!	!	!	!	!	!	!LO:SIC:v:t=custos cc	!	!	!	!	!	!	!	!	!
!	!	!	!	!	!	!LO:LB:g=original	!	!	!	!	!	!	!	!	!
=165-	=165-	=165-	=165-	=165-	=165-	=165-	=165-	=165-	=165-	=165-	=165-	=165-	=165-	=165-	=165-
2.F/	sae-	2.c/	ſae-	2.a\	sae-	2.cc\	sae-	1f	-men	1a	-men	1a	-men	1ff	-men
4F/	-cu-	4c/	-cu-	4a\	-cu-	4cc\	-cu-	.	.	.	.	.	.	.	.
=166-	=166-	=166-	=166-	=166-	=166-	=166-	=166-	=166-	=166-	=166-	=166-	=166-	=166-	=166-	=166-
2FZ/,<	-la	2fZ\,<	-la	2aZ\,<	-la	2ccZ\,<	-la	2r	.	2r	.	2r	.	2r	.
*	*	*	*	*	*	*	*	*	*	*	*	*	*ij	*	*
!	!	!	!	!	!	!	!	!	!	!LO:SIC:v:t=custos f	!	!	!	!	!
!	!	!	!	!	!	!	!	!	!	!LO:LB:g=original	!	!	!	!	!
2.B-\	Sae-	2.f\	Sae-	2.b-\	sae-	2.b-\	sae-	2.B-/	Sae-	2.f/	Sae-	2.dd\	Sae-	2.dd\	Sae-
=167-	=167-	=167-	=167-	=167-	=167-	=167-	=167-	=167-	=167-	=167-	=167-	=167-	=167-	=167-	=167-
4B-\	-cu-	4f\	-cu-	4b-\	-cu-	4b-\	-cu-	4B-/	-cu-	4f/	-cu-	4dd\	-cu-	4dd\	-cu-
!	!	!	!	!	!	!	!	!LO:SIC:v:t=custos f	!	!	!	!	!	!	!
4A/	-lo-	4f\	-lo-	4f/	-lo-	4cc\	-lo-	4f\	-lo-	4a\	-lo-	4cc\	-lo-	4ff\	-lo-
4A/	-ru(m)	4f\	-rum	4fZ/,<	-rum	4cc\	-rum	4f\	-rum	4a\	-rum	4cc\	-rum	4ff\	-rum
=168-	=168-	=168-	=168-	=168-	=168-	=168-	=168-	=168-	=168-	=168-	=168-	=168-	=168-	=168-	=168-
1B-	A-	1f	a-	2f/	a-	1dd	a-	1B-	a-	1f	A-	1b-	a-	1ff	a-
.	.	.	.	2b-\	-men	.	.	.	.	.	.	.	.	.	.
=169-	=169-	=169-	=169-	=169-	=169-	=169-	=169-	=169-	=169-	=169-	=169-	=169-	=169-	=169-	=169-
2F/	-men	2fZ\,<	-men	2rZ,<	.	2ccZ\,<	-men	2fZ\,<	-men	2a\	-men	2ccZ\,<	-men	2ffZ\,<	-men
!LO:SIC:v:t=custos B	!	!	!	!	!	!	!	!	!	!	!	!	!	!	!
!LO:LB:g=original	!	!	!	!	!	!	!	!	!	!	!	!	!	!	!
*	*	*	*	*	*	*	*	*	*	*	*	*	*Xij	*	*
2.B-\	Sae-	2.f\	Sae-	2.b-\	Sae-	2.b-\	Sae-	2.B-/	Sae-	2.f/	Sae-	2.dd\	Sae-	2.dd\	Sae-
=170-	=170-	=170-	=170-	=170-	=170-	=170-	=170-	=170-	=170-	=170-	=170-	=170-	=170-	=170-	=170-
.	.	.	.	.	.	.	.	.	.	.	.	.	.	.	.
4B-\	-cu-	4f\	-cu-	4b-\	-cu-	4b-\	-cu-	4B-/	-cu-	4f/	-cu-	4dd\	-cu-	4dd\	-cu-
4A/	-lo-	4f\	-lo-	4f/	-lo-	4cc\	-lo-	4f\	-lo-	4a\	-lo-	4cc\	-lo-	4ff\	-lo-
4AZ/,<	-rum	4fZ\,<	-rum	4f/	-rum	4ccZ\,<	-rum	4f\	-rum	4a\	-rum	4cc\	-rum	4ff\	-rum
=171-	=171-	=171-	=171-	=171-	=171-	=171-	=171-	=171-	=171-	=171-	=171-	=171-	=171-	=171-	=171-
0B-	A-	4d\	A-	0f	A-	2.dd\	A-	0B-	a-	1.f	A-	2.b-/	A-	4ff\	A-
.	.	4e\	.	.	.	.	.	.	.	.	.	.	.	4ee\	.
.	.	4f\	.	.	.	.	.	.	.	.	.	.	.	4dd\	.
.	.	4e\	.	.	.	4cc\	.	.	.	.	.	4cc\	.	4cc\	.
!	!	!	!	!	!	!	!	!	!	!	!	!	!	!LO:SIC:v:t=custos dd	!
!	!	!	!	!	!	!	!	!	!	!	!	!	!	!LO:LB:g=original	!
=172-	=172-	=172-	=172-	=172-	=172-	=172-	=172-	=172-	=172-	=172-	=172-	=172-	=172-	=172-	=172-
.	.	4d\	.	.	.	1b-	.	.	.	.	.	1dd	.	2.dd\	.
.	.	4c/	.	.	.	.	.	.	.	.	.	.	.	.	.
.	.	2B-/	.	.	.	.	.	.	.	2g/	.	.	.	.	.
.	.	.	.	.	.	.	.	.	.	.	.	.	.	4ee\	.
=173-	=173-	=173-	=173-	=173-	=173-	=173-	=173-	=173-	=173-	=173-	=173-	=173-	=173-	=173-	=173-
0F	-men.	0c	-men	0f	-[m]en.	0a	-men.	0f	-men.	0a	men.	0cc	men.	0ff	men.
=-	=-	=-	=-	=-	=-	=-	=-	=-	=-	=-	=-	=-	=-	=-	=-
*-	*-	*-	*-	*-	*-	*-	*-	*-	*-	*-	*-	*-	*-	*-	*-
!!!system-decoration: [(s1,s2,s3,s4)][(s5,s6,s7,s8)]
!!!AIN: 8 empty
!!!ENC: Filip Voros
!!!END: 2021-09-24
!!!RDF**kern: Z = caesura
!!!EED: Jędrzej Mróz
!!!ESR: 2021-10-07
!!!RDF**kern: > = above
!!!RDF**kern: < = below
